X: 10071
M: 6/8
L: 1/8
K: G
V: 1 staves=3
|: B/c/ |\
d2e dBG | d2e dBG | dBG dBG | edB A2 B/A/ |\
V: 2
|: G/A/ |\
V: 3 clef=bass middle=d
d' |\
g2g d2d | g2g d2d | g2g g2g | g2g f2d |\
g2g d2d | g2g d2d | g2g g2g | gcd G2 :|
|: G |\
g2g d2d | g2g d2d | g2g g2g | gcd G2 :|


